static/images/product/api/api3.svg

<svg height="160" viewBox="0 0 160 160" width="160" xmlns="http://www.w3.org/2000/svg" xmlns:xlink="http://www.w3.org/1999/xlink"><linearGradient id="a" x1="0%" x2="149.460671%" y1="0%" y2="71.875%"><stop offset="0" stop-color="#00eaf8"/><stop offset="1" stop-color="#6d42ef"/></linearGradient><path d="m626.677822 149.762135 35.239469 35.237865 11.082709-11.088704-35.23878-35.233039c-.754338-.756988-1.108064-1.798019-.96878-2.855596.137215-1.045857.762613-1.982785 1.674162-2.508126l23.533398-13.314535-91-36 37 90 13.312641-23.531205c.526106-.912798 1.463858-1.538795 2.509175-1.67737.137905-.016546.29029-.028266.445432-.028266.89707 0 1.775523.364016 2.410574.998976zm32.546404 41.25357-34.580053-33.997916-14.811533 25.215342c-.608741 1.035242-1.740542 1.678532-2.953877 1.678532-1.549836-.101894-2.699602-.927234-3.179823-2.113279l-41.455158-102.1954973c-.506478-1.2485398-.209363-2.6702992.757298-3.6206296.645361-.6331007 1.504231-.9822571 2.416306-.9822571.434617 0 .859561.0801565 1.264466.2397903l103.94123 40.7595947c1.208498.473467 2.04733 1.601772 2.141302 2.877483.094662 1.294052-.556918 2.501835-1.701157 3.151238l-25.644489 14.566751 34.579362 33.997236c.646744.635139 1.0019 1.478141 1.0019 2.375487 0 .896666-.355156 1.739668-1.001209 2.373448l-15.941262 15.674677c-.646053.634459-1.503541.984295-2.415615.984295-.914838 0-1.773017-.349836-2.417688-.984295zm-109.635384-127.015705c-.910378 0-1.766961-.3551982-2.411122-.9993829l-12.176304-12.1774357c-.646231-.6448744-1.001416-1.5007986-1.001416-2.4118993 0-.9111006.355875-1.7684042 1.000726-2.4139683.644161-.6428053 1.501434-.9973138 2.412501-.9973138.911068 0 1.76834.3545085 2.413191.9986932l12.173546 12.176746c.644851.6455641 1.000036 1.502178 1.000036 2.4132787 0 .9111006-.354496 1.7670248-.999347 2.4112095-.644851.6448744-1.501433 1.0000726-2.411811 1.0000726zm-25.184269 23c-1.877507 0-3.404573-1.5712841-3.404573-3.5028311 0-1.9287159 1.527066-3.4971689 3.404573-3.4971689h17.190854c1.877507 0 3.404573 1.568453 3.404573 3.4971689 0 1.9294236-1.527755 3.5014155-3.40595 3.5028311zm12.007275 33c-.910378 0-1.766961-.355198-2.411812-1.000073-.644851-.644184-1.000036-1.500109-1.000036-2.410519 0-.911101.355185-1.767025.999347-2.41052l12.178373-12.178815c.644851-.645565 1.500054-1.000073 2.411122-1.000073.910378 0 1.766271.355198 2.409742.999383.646231.644874 1.001416 1.501488 1.001416 2.411899s-.355185 1.767025-.999347 2.41052l-12.177683 12.178815c-.644851.644185-1.501434.999383-2.411122.999383zm37.087798-64c-1.929936 0-3.499646-1.526891-3.499646-3.4041821v-17.1916358c0-1.8772911 1.56971-3.4041821 3.499646-3.4041821 1.930644 0 3.500354 1.526891 3.500354 3.4041821v17.1888822c0 1.8786679-1.56971 3.4069357-3.500354 3.4069357zm20.908895 7c-.911911 0-1.767947-.3545471-2.412217-.9974224-1.328547-1.3305863-1.328547-3.4958069.00069-4.8257034l12.179038-12.178762c.64427-.6435651 1.500307-.9981122 2.411527-.9981122.91191 0 1.767947.3545471 2.411527.9981122.644959.6449446 1.000894 1.5030314 1.000894 2.4142312 0 .9105101-.355245 1.7665275-1.000204 2.4100926l-12.176969 12.1808314c-.64358.6421855-1.500996.9967326-2.414286.9967326z" fill="url(#a)" fill-rule="evenodd" transform="translate(-521 -32)"/></svg>

<?xml version="1.0" encoding="UTF-8"?>
<svg width="160px" height="160px" viewBox="0 0 160 160" version="1.1" xmlns="http://www.w3.org/2000/svg" xmlns:xlink="http://www.w3.org/1999/xlink">
    <!-- Generator: sketchtool 46.2 (44496) - http://www.bohemiancoding.com/sketch -->
    <title>481E8902-5C7D-4B89-8884-199E2935E1EE</title>
    <desc>Created with sketchtool.</desc>
    <defs>
        <linearGradient x1="0%" y1="0%" x2="149.460671%" y2="71.875%" id="linearGradient-1">
            <stop stop-color="#00EAF8" offset="0%"></stop>
            <stop stop-color="#6D42EF" offset="100%"></stop>
        </linearGradient>
    </defs>
    <g id="Page-1" stroke="none" stroke-width="1" fill="none" fill-rule="evenodd">
        <g id="Rakam-API-Screen-10/10/2017-one-click" transform="translate(-747.000000, -1040.000000)" fill="url(#linearGradient-1)">
            <g id="Analytics" transform="translate(49.000000, 784.000000)">
                <g id="txt" transform="translate(177.000000, 224.000000)">
                    <path d="M626.677822,149.762135 L661.917291,185 L673,173.911296 L637.76122,138.678257 C637.006882,137.921269 636.653156,136.880238 636.79244,135.822661 C636.929655,134.776804 637.555053,133.839876 638.466602,133.314535 L662,120 L571,84 L608,174 L621.312641,150.468795 C621.838747,149.555997 622.776499,148.93 623.821816,148.791425 C623.959721,148.774879 624.112106,148.763159 624.267248,148.763159 C625.164318,148.763159 626.042771,149.127175 626.677822,149.762135 Z M659.224226,191.015705 L624.644173,157.017789 L609.83264,182.233131 C609.223899,183.268373 608.092098,183.911663 606.878763,183.911663 C605.328927,183.809769 604.179161,182.984429 603.69894,181.798384 L562.243782,79.6028867 C561.737304,78.3543469 562.034419,76.9325875 563.00108,75.9822571 C563.646441,75.3491564 564.505311,75 565.417386,75 C565.852003,75 566.276947,75.0801565 566.681852,75.2397903 L670.623082,115.999385 C671.83158,116.472852 672.670412,117.601157 672.764384,118.876868 C672.859046,120.17092 672.207466,121.378703 671.063227,122.028106 L645.418738,136.594857 L679.9981,170.592093 C680.644844,171.227232 681,172.070234 681,172.96758 C681,173.864246 680.644844,174.707248 679.998791,175.341028 L664.057529,191.015705 C663.411476,191.650164 662.553988,192 661.641914,192 C660.727076,192 659.868897,191.650164 659.224226,191.015705 Z M549.588842,64 C548.678464,64 547.821881,63.6448018 547.17772,63.0006171 L535.001416,50.8231814 C534.355185,50.178307 534,49.3223828 534,48.4112821 C534,47.5001815 534.355875,46.6428779 535.000726,45.9973138 C535.644887,45.3545085 536.50216,45 537.413227,45 C538.324295,45 539.181567,45.3545085 539.826418,45.9986932 L551.999964,58.1754392 C552.644815,58.8210033 553,59.6776172 553,60.5887179 C553,61.4998185 552.645504,62.3557427 552.000653,62.9999274 C551.355802,63.6448018 550.49922,64 549.588842,64 Z M524.404573,87 C522.527066,87 521,85.4287159 521,83.4971689 C521,81.568453 522.527066,80 524.404573,80 L541.595427,80 C543.472934,80 545,81.568453 545,83.4971689 C545,85.4265925 543.472245,86.9985844 541.59405,87 L524.404573,87 Z M536.411848,120 C535.50147,120 534.644887,119.644802 534.000036,118.999927 C533.355185,118.355743 533,117.499818 533,116.589408 C533,115.678307 533.355185,114.822383 533.999347,114.178888 L546.17772,102.000073 C546.822571,101.354508 547.677774,101 548.588842,101 C549.49922,101 550.355113,101.355198 550.998584,101.999383 C551.644815,102.644257 552,103.500871 552,104.411282 C552,105.321693 551.644815,106.178307 551.000653,106.821802 L538.82297,119.000617 C538.178119,119.644802 537.321536,120 536.411848,120 Z M573.499646,56 C571.56971,56 570,54.473109 570,52.5958179 L570,35.4041821 C570,33.526891 571.56971,32 573.499646,32 C575.43029,32 577,33.526891 577,35.4041821 L577,52.5930643 C577,54.4717322 575.43029,56 573.499646,56 Z M594.408541,63 C593.49663,63 592.640594,62.6454529 591.996324,62.0025776 C590.667777,60.6719913 590.667777,58.5067707 591.997014,57.1768742 L604.176052,44.9981122 C604.820322,44.3545471 605.676359,44 606.587579,44 C607.499489,44 608.355526,44.3545471 608.999106,44.9981122 C609.644065,45.6430568 610,46.5011436 610,47.4123434 C610,48.3228535 609.644755,49.1788709 608.999796,49.822436 L596.822827,62.0032674 C596.179247,62.6454529 595.321831,63 594.408541,63 Z" id="Combined-Shape"></path>
                </g>
            </g>
        </g>
    </g>
</svg>
